src/icons/kystens.svg

<svg width="975" height="114" viewBox="0 0 975 114" fill="none" xmlns="http://www.w3.org/2000/svg">
<path d="M195.907 87.8894C192.146 86.2136 183.67 72.2035 166.523 36.5353L170.079 32.0342C178.448 21.2587 188.171 14.6726 194.027 12.9968V12.3733H170.917V12.9968C173.528 13.2014 174.999 14.9843 174.999 17.498C174.999 21.6776 172.905 25.1363 168.511 30.7774L153.029 50.8572C167.039 82.6478 169.767 88.9221 181.478 88.9221C183.992 88.9221 192.146 88.9221 195.907 88.5032V87.8894Z" fill="#EC9E9E"/>
<path d="M151.353 74.9218V25.9742C151.353 18.2385 151.772 13.0066 158.884 13.0066V12.3831H123.742V13.0066C130.854 13.0066 131.273 18.2385 131.273 25.9742V74.9218C131.273 82.6575 130.854 87.8894 123.742 87.8894V88.5129H158.884V87.8894C151.772 87.8894 151.353 82.6575 151.353 74.9218Z" fill="#EC9E9E"/>
<path d="M234.498 33.7197H218.393V34.3433C222.992 35.1811 225.613 39.7797 221.949 50.0291L216.406 65.7149L207.52 43.3358C205.845 39.1562 205.737 34.7622 210.443 34.3433V33.7197H181.264V34.3433C184.82 34.9668 186.388 39.3608 189.107 46.1612L207.306 91.3384L205.942 95.2063C201.655 107.336 195.897 106.917 185.862 97.7199H185.239L184.196 112.568C186.077 112.772 187.957 112.987 189.944 112.987C196.638 112.987 203.126 108.281 207.092 97.0866L223.723 50.6526C227.386 40.4033 231.147 34.9668 234.498 34.3335V33.7197Z" fill="#EC9E9E"/>
<path d="M257.608 52.4355L253.428 50.2434C249.872 48.3631 244.855 46.1612 244.855 40.7247C244.855 36.964 247.368 33.9243 252.493 33.9243C259.917 33.9243 265.042 41.3483 269.017 48.7723H269.64V34.7622C265.246 33.3008 258.241 32.4629 254.062 32.4629C242.555 32.4629 233.037 38.9516 233.037 50.6624C233.037 61.5353 241.299 65.6175 245.059 67.605L249.239 69.7971C256.039 73.3532 260.531 75.4479 260.531 80.67C260.531 85.6876 256.351 88.3084 251.324 88.3084C242.02 88.3084 237.314 78.8969 232.706 70.5278H232.082L233.027 87.2659C237.207 88.9416 244.114 89.7795 248.927 89.7795C262.937 89.7795 272.359 82.5601 272.359 70.6447C272.359 59.9667 264.72 56.1962 257.608 52.4355Z" fill="#EC9E9E"/>
<path d="M305.718 81.4008C301.636 81.4008 299.229 79.1015 299.229 74.084V38.9419H311.466L313.454 33.71H299.229V16.7771H298.606C291.912 27.65 285.005 32.044 276.012 36.5451L274.551 37.2759V38.9516H279.987V73.8794C279.987 85.5902 285.424 89.7796 294.523 89.7796C301.636 89.7796 309.274 85.181 314.291 78.4877L313.668 78.0688C311.359 79.9394 308.222 81.4008 305.718 81.4008Z" fill="#EC9E9E"/>
<path d="M340.754 32.4629C323.811 32.4629 313.143 45.8494 313.143 62.1685C313.143 76.5976 321.2 89.7795 338.142 89.7795C350.379 89.7795 356.858 82.7745 361.467 74.4054L360.843 73.9865C357.599 78.5851 352.581 80.7869 347.349 80.7869C336.574 80.7869 332.706 71.3755 332.394 55.2707H361.457C362.09 41.6601 354.764 32.4629 340.754 32.4629ZM345.566 53.5852H332.385C332.385 44.2809 333.534 33.9243 340.335 33.9243C346.19 33.9243 346.502 41.5626 345.566 53.5852Z" fill="#EC9E9E"/>
<path d="M420.234 77.64V48.7722C420.234 38.3085 416.152 32.4531 406.224 32.4531C398.907 32.4531 392.312 37.1589 387.401 42.1764V32.6577H386.982L362.82 37.2563V37.8798C366.376 39.1367 368.15 41.017 368.15 47.7103V77.6205C368.15 84.3138 367.838 87.8699 363.551 87.8699V88.4934H392V87.8699C387.713 87.8699 387.401 84.3138 387.401 77.6205V43.4235C389.701 42.4784 392.419 41.8549 394.299 41.8549C400.155 41.8549 400.992 46.2489 400.992 53.3611V77.6205C400.992 84.3138 400.681 87.8699 396.394 87.8699V88.4934H424.843V87.8699C420.546 87.8894 420.234 84.3333 420.234 77.64Z" fill="#EC9E9E"/>
<path d="M452.649 52.4355L448.469 50.2434C444.913 48.3631 439.896 46.1612 439.896 40.7247C439.896 36.964 442.409 33.9243 447.534 33.9243C454.958 33.9243 460.083 41.3483 464.058 48.7723H464.681V34.7622C460.287 33.3008 453.282 32.4629 449.103 32.4629C437.597 32.4629 428.078 38.9516 428.078 50.6624C428.078 61.5353 436.34 65.6175 440.1 67.605L444.28 69.7971C451.08 73.3532 455.572 75.4479 455.572 80.67C455.572 85.6876 451.392 88.3084 446.365 88.3084C437.061 88.3084 432.355 78.8969 427.747 70.5278H427.123L428.068 87.2659C432.248 88.9416 439.155 89.7795 443.968 89.7795C457.978 89.7795 467.4 82.5601 467.4 70.6447C467.39 59.9667 459.761 56.1962 452.649 52.4355Z" fill="#EC9E9E"/>
<path d="M553.466 12.383H533.591V13.0066C541.541 15.1013 543.217 22.4181 543.217 32.2485V55.8844L513.413 12.3733H486.533V12.9968C491.551 13.8347 495.74 17.1765 495.74 25.7598V64.4581C495.74 78.4681 493.645 87.0515 486.533 87.8796V88.5032H508.289V87.8796C501.177 87.4607 497.62 78.4681 497.62 64.4581V23.0513L544.473 91.0266H545.097V32.2485C545.097 22.4181 546.354 13.4255 553.466 13.0066V12.383Z" fill="#EC9E9E"/>
<path d="M605.746 32.4629C599.89 32.4629 594.97 34.0315 591.103 36.7497C587.858 33.9243 583.367 32.4629 577.921 32.4629C566.21 32.4629 557.948 39.049 554.489 49.9316L555.113 50.2434C557.831 45.0116 563.17 40.413 569.649 40.413C579.372 40.413 579.372 50.867 579.372 53.7995V59.1288L570.165 61.6424C558.055 64.9842 552.414 70.3232 552.414 78.2636C552.414 85.3758 557.958 89.7698 565.382 89.7698C574.589 89.7698 580.132 83.9144 583.055 78.4779C586.718 85.1712 593.09 89.7698 603.135 89.7698C615.372 89.7698 621.851 82.7647 626.459 74.3957L625.835 73.9768C622.591 78.5753 617.574 80.7772 612.342 80.7772C601.566 80.7772 597.698 71.3657 597.387 55.2609H626.459C627.083 41.6601 619.766 32.4629 605.746 32.4629ZM575.524 82.2386C572.601 82.2386 569.776 78.9943 569.776 73.1389C569.776 66.8646 571.237 64.1463 577.511 61.4281L579.392 60.5902V62.1588C579.392 67.4881 580.337 72.6128 582.315 76.9093C580.649 79.7347 578.349 82.2386 575.524 82.2386ZM610.559 53.5852H597.377C597.377 44.2809 598.527 33.9243 605.327 33.9243C611.192 33.9243 611.504 41.5626 610.559 53.5852Z" fill="#EC9E9E"/>
<path d="M652.393 43.443V32.6675H651.975L627.812 37.266V37.8896C631.369 39.1464 633.142 41.0267 633.142 47.72V77.6303C633.142 84.3235 632.83 87.8797 628.543 87.8797V88.5032H656.992V87.8797C652.705 87.8797 652.393 84.3235 652.393 77.6303V44.7972C654.069 43.9593 655.745 43.5404 657.411 43.5404C660.967 43.5404 664.728 45.6351 667.768 49.6101H668.391L672.054 33.291C670.486 32.7649 669.024 32.4531 667.66 32.4531C661.805 32.4629 656.992 36.8568 652.393 43.443Z" fill="#EC9E9E"/>
<path d="M686.795 26.812C692.231 26.812 696.732 22.3108 696.732 16.6698C696.732 11.2333 692.231 6.73218 686.795 6.73218C681.144 6.73218 676.652 11.2333 676.652 16.6698C676.652 22.3108 681.144 26.812 686.795 26.812Z" fill="#EC9E9E"/>
<path d="M696.733 77.64V32.6675H696.314L672.152 37.2661V37.8896C675.708 39.1464 677.482 41.0268 677.482 47.72V77.6303C677.482 84.3236 677.17 87.8797 672.883 87.8797V88.5032H701.332V87.8797C697.045 87.8894 696.733 84.3333 696.733 77.64Z" fill="#EC9E9E"/>
<path d="M760.002 77.64V48.7722C760.002 38.3085 755.92 32.4531 745.992 32.4531C738.675 32.4531 732.079 37.1589 727.169 42.1764V32.6577H726.75L702.588 37.2563V37.8798C706.144 39.1367 707.917 41.017 707.917 47.7103V77.6205C707.917 84.3138 707.605 87.8699 703.319 87.8699V88.4934H731.767V87.8699C727.481 87.8699 727.169 84.3138 727.169 77.6205V43.4235C729.468 42.4784 732.186 41.8549 734.067 41.8549C739.922 41.8549 740.76 46.2489 740.76 53.3611V77.6205C740.76 84.3138 740.448 87.8699 736.161 87.8699V88.4934H764.61V87.8699C760.314 87.8894 760.002 84.3333 760.002 77.64Z" fill="#EC9E9E"/>
<path d="M819.405 32.6675L801.936 34.7622C798.595 33.3008 794.512 32.4629 789.699 32.4629C775.894 32.4629 767.106 40.1012 767.106 51.2859C767.106 59.3431 771.286 65.0914 778.719 67.8096C772.133 71.58 767.632 75.1264 767.632 80.5726C767.632 86.2234 770.769 90.2959 778.086 90.2959H797.747C804.752 90.2959 808.62 93.3259 808.62 98.3531C808.62 105.358 802.764 109.333 795.029 109.333C785.198 109.333 779.44 104.627 779.44 97.4081C779.44 95.216 780.064 93.5402 781.223 91.4455H780.804L778.817 91.7573C772.542 92.7998 765.635 95.6252 765.635 102.737C765.635 107.755 770.964 113.61 785.403 113.61C802.131 113.61 819.395 103.984 819.395 89.9744C819.395 80.7675 812.702 75.0192 801.196 75.0192H782.373C778.612 75.0192 777.56 73.6553 777.56 71.9892C777.56 70.4207 778.291 69.4756 779.966 68.2285C782.792 69.1736 786.036 69.5925 789.69 69.5925C803.495 69.5925 812.176 62.0614 812.176 50.7695C812.176 45.8592 810.607 41.777 807.782 38.747L817.408 39.7894L819.405 32.6675ZM789.699 68.1214C784.049 68.1214 783.006 60.1713 783.006 50.9741C783.006 41.777 784.049 33.9243 789.699 33.9243C795.35 33.9243 796.285 41.7672 796.285 50.9741C796.285 60.181 795.35 68.1214 789.699 68.1214Z" fill="#EC9E9E"/>
<path d="M846.167 52.4355L841.987 50.2434C838.431 48.3631 833.413 46.1612 833.413 40.7247C833.413 36.964 835.927 33.9243 841.052 33.9243C848.476 33.9243 853.6 41.3483 857.575 48.7723H858.199V34.7622C853.805 33.3008 846.8 32.4629 842.62 32.4629C831.114 32.4629 821.595 38.9516 821.595 50.6624C821.595 61.5353 829.857 65.6175 833.618 67.605L837.798 69.7971C844.598 73.3532 849.089 75.4479 849.089 80.67C849.089 85.6876 844.91 88.3084 839.883 88.3084C830.578 88.3084 825.872 78.8969 821.264 70.5278H820.641L821.586 87.2659C825.765 88.9416 832.673 89.7795 837.486 89.7795C851.496 89.7795 860.917 82.5601 860.917 70.6447C860.917 59.9667 853.279 56.1962 846.167 52.4355Z" fill="#EC9E9E"/>
<path d="M887.272 77.6399V6.73218H886.853L862.691 10.4929V11.1164C866.248 12.3732 868.021 14.2536 868.021 20.9469V77.6302C868.021 84.3235 867.709 87.8796 863.422 87.8796V88.5031H891.871V87.8796C887.584 87.8893 887.272 84.3332 887.272 77.6399Z" fill="#EC9E9E"/>
<path d="M907.761 26.812C913.198 26.812 917.699 22.3108 917.699 16.6698C917.699 11.2333 913.198 6.73218 907.761 6.73218C902.111 6.73218 897.619 11.2333 897.619 16.6698C897.619 22.3108 902.12 26.812 907.761 26.812Z" fill="#EC9E9E"/>
<path d="M917.7 77.64V32.6675H917.281L893.119 37.2661V37.8896C896.675 39.1464 898.448 41.0268 898.448 47.72V77.6303C898.448 84.3236 898.137 87.8797 893.85 87.8797V88.5032H922.299V87.8797C918.012 87.8894 917.7 84.3333 917.7 77.64Z" fill="#EC9E9E"/>
<path d="M958.278 33.7197V34.3432C962.877 35.1811 965.809 39.6725 961.834 50.0291L956.086 65.0914L947.824 43.3358C946.041 38.7372 946.041 34.7622 950.757 34.3432V33.7197H921.158V34.3432C924.714 34.9668 926.283 39.3608 929.001 46.1612L947.093 91.0266H947.931L963.617 50.6526C967.592 40.5104 971.041 34.9668 974.393 34.3335V33.71H958.278V33.7197Z" fill="#EC9E9E"/>
<path d="M23.1293 0.837891H0V98.509H23.1293V0.837891Z" fill="#EC9E9E"/>
<path d="M57.5512 49.6783C57.5512 30.261 71.5905 17.6052 71.6781 17.537L56.5866 0C55.6805 0.77942 34.4121 19.4173 34.4121 49.6783C34.4121 79.9393 55.6805 98.5772 56.5866 99.3566L71.7269 81.8781C71.5905 81.7515 57.5512 69.0956 57.5512 49.6783Z" fill="#EC9E9E"/>
</svg>

<svg xmlns="http://www.w3.org/2000/svg" fill="none" viewBox="0 0 975 114">
  <title>Kystens Næringsliv</title>
  <path fill="#EC9E9E" d="M195.907 87.89c-3.761-1.676-12.237-15.686-29.384-51.355l3.556-4.5c8.369-10.776 18.092-17.362 23.948-19.038v-.624h-23.11v.624c2.611.204 4.082 1.987 4.082 4.501 0 4.18-2.094 7.638-6.488 13.28l-15.482 20.08c14.01 31.79 16.738 38.064 28.449 38.064 2.514 0 10.668 0 14.429-.419v-.614Z"/>
  <path fill="#EC9E9E" d="M151.353 74.922V25.974c0-7.736.419-12.967 7.531-12.967v-.624h-35.142v.624c7.112 0 7.531 5.231 7.531 12.967v48.948c0 7.736-.419 12.967-7.531 12.967v.624h35.142v-.624c-7.112 0-7.531-5.231-7.531-12.967ZM234.498 33.72h-16.105v.623c4.599.838 7.22 5.437 3.556 15.686l-5.543 15.686-8.886-22.38c-1.675-4.179-1.783-8.573 2.923-8.992v-.623h-29.179v.623c3.556.624 5.124 5.018 7.843 11.818l18.199 45.177-1.364 3.868c-4.287 12.13-10.045 11.711-20.08 2.514h-.623l-1.043 14.848c1.881.204 3.761.419 5.748.419 6.694 0 13.182-4.706 17.148-15.9l16.631-46.434c3.663-10.25 7.424-15.686 10.775-16.32v-.613ZM257.608 52.435l-4.18-2.192c-3.556-1.88-8.573-4.082-8.573-9.518 0-3.761 2.513-6.8 7.638-6.8 7.424 0 12.549 7.423 16.524 14.847h.623v-14.01c-4.394-1.461-11.399-2.3-15.578-2.3-11.507 0-21.025 6.49-21.025 18.2 0 10.873 8.262 14.956 12.022 16.943l4.18 2.192c6.8 3.556 11.292 5.65 11.292 10.873 0 5.018-4.18 7.638-9.207 7.638-9.304 0-14.01-9.411-18.618-17.78h-.624l.945 16.738c4.18 1.676 11.087 2.513 15.9 2.513 14.01 0 23.432-7.219 23.432-19.134 0-10.678-7.639-14.449-14.751-18.21ZM305.718 81.4c-4.082 0-6.489-2.299-6.489-7.316V38.942h12.237l1.988-5.232h-14.225V16.777h-.623c-6.694 10.873-13.601 15.267-22.594 19.768l-1.461.73v1.677h5.436v34.927c0 11.711 5.437 15.9 14.536 15.9 7.113 0 14.751-4.598 19.768-11.291l-.623-.42c-2.309 1.871-5.446 3.333-7.95 3.333Z"/>
  <path fill="#EC9E9E" d="M340.754 32.463c-16.943 0-27.611 13.386-27.611 29.706 0 14.429 8.057 27.61 24.999 27.61 12.237 0 18.716-7.004 23.325-15.374l-.624-.418c-3.244 4.598-8.262 6.8-13.494 6.8-10.775 0-14.643-9.412-14.955-25.516h29.063c.633-13.61-6.693-22.808-20.703-22.808Zm4.812 21.122h-13.181c0-9.304 1.149-19.66 7.95-19.66 5.855 0 6.167 7.638 5.231 19.66ZM420.234 77.64V48.772c0-10.463-4.082-16.319-14.01-16.319-7.317 0-13.912 4.706-18.823 9.723v-9.518h-.419l-24.162 4.598v.624c3.556 1.257 5.33 3.137 5.33 9.83v29.91c0 6.694-.312 10.25-4.599 10.25v.623H392v-.623c-4.287 0-4.599-3.556-4.599-10.25V43.424c2.3-.945 5.018-1.568 6.898-1.568 5.856 0 6.693 4.394 6.693 11.506v24.26c0 6.693-.311 10.249-4.598 10.249v.623h28.449v-.623c-4.297.02-4.609-3.537-4.609-10.23ZM452.649 52.435l-4.18-2.192c-3.556-1.88-8.573-4.082-8.573-9.518 0-3.761 2.513-6.8 7.638-6.8 7.424 0 12.549 7.423 16.524 14.847h.623v-14.01c-4.394-1.461-11.399-2.3-15.578-2.3-11.506 0-21.025 6.49-21.025 18.2 0 10.873 8.262 14.956 12.022 16.943l4.18 2.192c6.8 3.556 11.292 5.65 11.292 10.873 0 5.018-4.18 7.638-9.207 7.638-9.304 0-14.01-9.411-18.618-17.78h-.624l.945 16.738c4.18 1.676 11.087 2.513 15.9 2.513 14.01 0 23.432-7.219 23.432-19.134-.01-10.678-7.639-14.449-14.751-18.21ZM553.466 12.383h-19.875v.624c7.95 2.094 9.626 9.411 9.626 19.242v23.635l-29.804-43.51h-26.88v.623c5.018.838 9.207 4.18 9.207 12.763v38.698c0 14.01-2.095 22.594-9.207 23.422v.623h21.756v-.623c-7.112-.42-10.669-9.412-10.669-23.422V23.051l46.853 67.976h.624V32.248c0-9.83 1.257-18.822 8.369-19.241v-.624ZM605.746 32.463c-5.856 0-10.776 1.569-14.643 4.287-3.245-2.826-7.736-4.287-13.182-4.287-11.711 0-19.973 6.586-23.432 17.469l.624.311c2.718-5.231 8.057-9.83 14.536-9.83 9.723 0 9.723 10.454 9.723 13.387v5.329l-9.207 2.513c-12.11 3.342-17.751 8.681-17.751 16.622 0 7.112 5.544 11.506 12.968 11.506 9.207 0 14.75-5.856 17.673-11.292 3.663 6.693 10.035 11.292 20.08 11.292 12.237 0 18.716-7.005 23.324-15.374l-.624-.42c-3.244 4.6-8.261 6.801-13.493 6.801-10.776 0-14.644-9.411-14.955-25.516h29.072c.624-13.6-6.693-22.798-20.713-22.798Zm-30.222 49.776c-2.923 0-5.748-3.245-5.748-9.1 0-6.274 1.461-8.993 7.735-11.71l1.881-.839v1.569c0 5.33.945 10.454 2.923 14.75-1.666 2.826-3.966 5.33-6.791 5.33Zm35.035-28.654h-13.182c0-9.304 1.15-19.66 7.95-19.66 5.865 0 6.177 7.638 5.232 19.66ZM652.393 43.443V32.667h-.418l-24.163 4.599v.624c3.557 1.256 5.33 3.137 5.33 9.83v29.91c0 6.694-.312 10.25-4.599 10.25v.623h28.449v-.623c-4.287 0-4.599-3.556-4.599-10.25V44.797c1.676-.838 3.352-1.257 5.018-1.257 3.556 0 7.317 2.095 10.357 6.07h.623l3.663-16.319c-1.568-.526-3.03-.838-4.394-.838-5.855.01-10.668 4.404-15.267 10.99ZM686.795 26.812c5.436 0 9.937-4.501 9.937-10.142 0-5.437-4.501-9.938-9.937-9.938-5.651 0-10.143 4.501-10.143 9.938a10.086 10.086 0 0 0 10.143 10.142ZM696.733 77.64V32.667h-.419l-24.162 4.6v.623c3.556 1.256 5.33 3.137 5.33 9.83v29.91c0 6.694-.312 10.25-4.599 10.25v.623h28.449v-.623c-4.287.01-4.599-3.547-4.599-10.24ZM760.002 77.64V48.772c0-10.463-4.082-16.319-14.01-16.319-7.317 0-13.913 4.706-18.823 9.723v-9.518h-.419l-24.162 4.598v.624c3.556 1.257 5.329 3.137 5.329 9.83v29.91c0 6.694-.312 10.25-4.598 10.25v.623h28.448v-.623c-4.286 0-4.598-3.556-4.598-10.25V43.424c2.299-.945 5.017-1.568 6.898-1.568 5.855 0 6.693 4.394 6.693 11.506v24.26c0 6.693-.312 10.249-4.599 10.249v.623h28.449v-.623c-4.296.02-4.608-3.537-4.608-10.23ZM819.405 32.667l-17.469 2.095c-3.341-1.461-7.424-2.3-12.237-2.3-13.805 0-22.593 7.64-22.593 18.824 0 8.057 4.18 13.805 11.613 16.524-6.586 3.77-11.087 7.316-11.087 12.763 0 5.65 3.137 9.723 10.454 9.723h19.661c7.005 0 10.873 3.03 10.873 8.057 0 7.005-5.856 10.98-13.591 10.98-9.831 0-15.589-4.706-15.589-11.925 0-2.192.624-3.868 1.783-5.963h-.419l-1.987.312c-6.275 1.043-13.182 3.868-13.182 10.98 0 5.018 5.329 10.873 19.768 10.873 16.728 0 33.992-9.626 33.992-23.636 0-9.207-6.693-14.955-18.199-14.955h-18.823c-3.761 0-4.813-1.364-4.813-3.03 0-1.568.731-2.513 2.406-3.76 2.826.945 6.07 1.364 9.724 1.364 13.805 0 22.486-7.532 22.486-18.824 0-4.91-1.569-8.992-4.394-12.022l9.626 1.042 1.997-7.122Zm-29.706 35.454c-5.65 0-6.693-7.95-6.693-17.147s1.043-17.05 6.693-17.05c5.651 0 6.586 7.843 6.586 17.05s-.935 17.147-6.586 17.147ZM846.167 52.435l-4.18-2.192c-3.556-1.88-8.574-4.082-8.574-9.518 0-3.761 2.514-6.8 7.639-6.8 7.424 0 12.548 7.423 16.523 14.847h.624v-14.01c-4.394-1.461-11.399-2.3-15.579-2.3-11.506 0-21.025 6.49-21.025 18.2 0 10.873 8.262 14.956 12.023 16.943l4.18 2.192c6.8 3.556 11.291 5.65 11.291 10.873 0 5.018-4.179 7.638-9.206 7.638-9.305 0-14.011-9.411-18.619-17.78h-.623l.945 16.738c4.179 1.676 11.087 2.513 15.9 2.513 14.01 0 23.431-7.219 23.431-19.134 0-10.678-7.638-14.449-14.75-18.21ZM887.272 77.64V6.732h-.419l-24.162 3.76v.624c3.557 1.257 5.33 3.138 5.33 9.83V77.63c0 6.694-.312 10.25-4.599 10.25v.623h28.449v-.623c-4.287.01-4.599-3.547-4.599-10.24ZM907.761 26.812c5.437 0 9.938-4.501 9.938-10.142 0-5.437-4.501-9.938-9.938-9.938-5.65 0-10.142 4.501-10.142 9.938a10.092 10.092 0 0 0 10.142 10.142ZM917.7 77.64V32.667h-.419l-24.162 4.6v.623c3.556 1.256 5.329 3.137 5.329 9.83v29.91c0 6.694-.311 10.25-4.598 10.25v.623h28.449v-.623c-4.287.01-4.599-3.547-4.599-10.24ZM958.278 33.72v.623c4.599.838 7.531 5.33 3.556 15.686l-5.748 15.062-8.262-21.755c-1.783-4.599-1.783-8.574 2.933-8.993v-.623h-29.599v.623c3.556.624 5.125 5.018 7.843 11.818l18.092 44.866h.838l15.686-40.374c3.975-10.143 7.424-15.686 10.776-16.32v-.623h-16.115v.01ZM23.13.838H0v97.671h23.13V.838ZM57.551 49.678c0-19.417 14.04-32.073 14.127-32.141L56.587 0c-.907.78-22.175 19.417-22.175 49.678 0 30.261 21.269 48.9 22.175 49.679l15.14-17.479c-.136-.127-14.176-12.782-14.176-32.2Z"/>
</svg>
